gtk/icons/scalable/actions/gesture-swipe-left-symbolic.svg

<?xml version="1.0" encoding="UTF-8" standalone="no"?>
<svg
   width="64"
   height="64"
   viewBox="0 0 64 64.000001"
   id="svg6535"
   version="1.1"
   xmlns="http://www.w3.org/2000/svg"
   xmlns:svg="http://www.w3.org/2000/svg"
   xmlns:rdf="http://www.w3.org/1999/02/22-rdf-syntax-ns#"
   xmlns:cc="http://creativecommons.org/ns#"
   xmlns:dc="http://purl.org/dc/elements/1.1/">
  <defs
     id="defs6537" />
  <metadata
     id="metadata6540">
    <rdf:RDF>
      <cc:Work
         rdf:about="">
        <dc:format>image/svg+xml</dc:format>
        <dc:type
           rdf:resource="http://purl.org/dc/dcmitype/StillImage" />
      </cc:Work>
    </rdf:RDF>
  </metadata>
  <g
     id="layer1"
     transform="translate(180,-470.14793)">
    <path
       style="color:#000000;clip-rule:nonzero;display:inline;overflow:visible;visibility:visible;opacity:1;isolation:auto;mix-blend-mode:normal;color-interpolation:sRGB;color-interpolation-filters:linearRGB;solid-color:#000000;solid-opacity:1;fill:#000000;fill-opacity:1;fill-rule:nonzero;stroke:#4a90d9;stroke-width:0;stroke-linecap:round;stroke-linejoin:miter;stroke-miterlimit:4;stroke-dasharray:none;stroke-dashoffset:0;stroke-opacity:1;marker:none;color-rendering:auto;image-rendering:auto;shape-rendering:auto;text-rendering:auto;enable-background:accumulate"
       d="m 13,10.148438 -10,9.5 10,9.5 v -7 h 8.308594 C 21.944495,24.718331 23.685966,26.857732 26,28.029297 V 47 H 25 V 39.185547 C 25,36.866788 23.215997,35 21,35 c -2.215997,0 -4,1.866788 -4,4.185547 V 47 55.814453 60 h 4 25 11 c 2.215997,0 4,-1.866788 4,-4.185547 v -12.628906 -9 C 61,31.866788 59.215997,30 57,30 c -2.215997,0 -4,1.866788 -4,4.185547 V 39 H 52 V 31.185547 C 52,28.866788 50.325274,27 48.246094,27 H 47.753906 C 45.674726,27 44,28.866788 44,31.185547 V 39 H 43 V 31.185547 C 43,28.866788 41.215997,27 39,27 c -2.215997,0 -4,1.866788 -4,4.185547 V 39 H 34 V 28.064453 C 36.975121,26.592197 39.037109,23.530537 39.037109,20 c 0,-4.9528 -4.04721,-9 -9,-9 -3.956103,0 -7.327861,2.585082 -8.527343,6.148438 H 13 Z M 30.037109,14 c 3.33147,0 6,2.66852 6,6 0,1.806375 -0.787744,3.414863 -2.037109,4.511719 V 20.185547 C 34,17.866788 32.215997,16 30,16 c -2.215997,0 -4,1.866788 -4,4.185547 v 4.257812 C 24.794444,23.34842 24.037109,21.769849 24.037109,20 c 0,-3.33148 2.66853,-6 6,-6 z"
       transform="translate(-180,470.14793)"
       id="rect7439" />
  </g>
</svg>

<?xml version="1.0" encoding="UTF-8" standalone="no"?>
<!-- Created with Inkscape (http://www.inkscape.org/) -->

<svg
   xmlns:dc="http://purl.org/dc/elements/1.1/"
   xmlns:cc="http://creativecommons.org/ns#"
   xmlns:rdf="http://www.w3.org/1999/02/22-rdf-syntax-ns#"
   xmlns:svg="http://www.w3.org/2000/svg"
   xmlns="http://www.w3.org/2000/svg"
   xmlns:sodipodi="http://sodipodi.sourceforge.net/DTD/sodipodi-0.dtd"
   xmlns:inkscape="http://www.inkscape.org/namespaces/inkscape"
   width="64"
   height="64"
   viewBox="0 0 64 64.000001"
   id="svg6535"
   version="1.1"
   inkscape:version="0.92pre1 r"
   sodipodi:docname="gesture-swipe-left-symbolic.svg">
  <defs
     id="defs6537" />
  <sodipodi:namedview
     id="base"
     pagecolor="#ffffff"
     bordercolor="#666666"
     borderopacity="1.0"
     inkscape:pageopacity="0.0"
     inkscape:pageshadow="2"
     inkscape:zoom="5.6568542"
     inkscape:cx="42.668129"
     inkscape:cy="13.067331"
     inkscape:document-units="px"
     inkscape:current-layer="layer1"
     showgrid="false"
     units="px"
     inkscape:showpageshadow="false"
     fit-margin-top="0"
     fit-margin-left="0"
     fit-margin-right="0"
     fit-margin-bottom="0"
     inkscape:window-width="2560"
     inkscape:window-height="1376"
     inkscape:window-x="0"
     inkscape:window-y="27"
     inkscape:window-maximized="1">
    <inkscape:grid
       type="xygrid"
       id="grid7931" />
  </sodipodi:namedview>
  <metadata
     id="metadata6540">
    <rdf:RDF>
      <cc:Work
         rdf:about="">
        <dc:format>image/svg+xml</dc:format>
        <dc:type
           rdf:resource="http://purl.org/dc/dcmitype/StillImage" />
        <dc:title></dc:title>
      </cc:Work>
    </rdf:RDF>
  </metadata>
  <g
     inkscape:label="Layer 1"
     inkscape:groupmode="layer"
     id="layer1"
     transform="translate(180,-470.14793)">
    <path
       style="color:#000000;clip-rule:nonzero;display:inline;overflow:visible;visibility:visible;opacity:1;isolation:auto;mix-blend-mode:normal;color-interpolation:sRGB;color-interpolation-filters:linearRGB;solid-color:#000000;solid-opacity:1;fill:#000000;fill-opacity:1;fill-rule:nonzero;stroke:#4a90d9;stroke-width:0;stroke-linecap:round;stroke-linejoin:miter;stroke-miterlimit:4;stroke-dasharray:none;stroke-dashoffset:0;stroke-opacity:1;marker:none;color-rendering:auto;image-rendering:auto;shape-rendering:auto;text-rendering:auto;enable-background:accumulate"
       d="M 13 10.148438 L 3 19.648438 L 13 29.148438 L 13 22.148438 L 21.308594 22.148438 C 21.944495 24.718331 23.685966 26.857732 26 28.029297 L 26 47 L 25 47 L 25 39.185547 C 25 36.866788 23.215997 35 21 35 C 18.784003 35 17 36.866788 17 39.185547 L 17 47 L 17 55.814453 L 17 60 L 21 60 L 46 60 L 57 60 C 59.215997 60 61 58.133212 61 55.814453 L 61 43.185547 L 61 34.185547 C 61 31.866788 59.215997 30 57 30 C 54.784003 30 53 31.866788 53 34.185547 L 53 39 L 52 39 L 52 31.185547 C 52 28.866788 50.325274 27 48.246094 27 L 47.753906 27 C 45.674726 27 44 28.866788 44 31.185547 L 44 39 L 43 39 L 43 31.185547 C 43 28.866788 41.215997 27 39 27 C 36.784003 27 35 28.866788 35 31.185547 L 35 39 L 34 39 L 34 28.064453 C 36.975121 26.592197 39.037109 23.530537 39.037109 20 C 39.037109 15.0472 34.989899 11 30.037109 11 C 26.081006 11 22.709248 13.585082 21.509766 17.148438 L 13 17.148438 L 13 10.148438 z M 30.037109 14 C 33.368579 14 36.037109 16.66852 36.037109 20 C 36.037109 21.806375 35.249365 23.414863 34 24.511719 L 34 20.185547 C 34 17.866788 32.215997 16 30 16 C 27.784003 16 26 17.866788 26 20.185547 L 26 24.443359 C 24.794444 23.34842 24.037109 21.769849 24.037109 20 C 24.037109 16.66852 26.705639 14 30.037109 14 z "
       transform="translate(-180,470.14793)"
       id="rect7439" />
    <g
       style="display:inline"
       transform="translate(92.5,114.14791)"
       id="g7483">
      <g
         id="g7481">
        <rect
           rx="3.999995"
           ry="4.1854858"
           y="391"
           x="-324"
           height="24.999994"
           width="7.99999"
           id="rect7465"
           style="color:#000000;clip-rule:nonzero;display:inline;overflow:visible;visibility:visible;opacity:1;isolation:auto;mix-blend-mode:normal;color-interpolation:sRGB;color-interpolation-filters:linearRGB;solid-color:#000000;solid-opacity:1;fill:#000000;fill-opacity:1;fill-rule:nonzero;stroke:#4a90d9;stroke-width:0;stroke-linecap:round;stroke-linejoin:miter;stroke-miterlimit:4;stroke-dasharray:none;stroke-dashoffset:0;stroke-opacity:1;marker:none;color-rendering:auto;image-rendering:auto;shape-rendering:auto;text-rendering:auto;enable-background:accumulate" />
        <rect
           style="color:#000000;clip-rule:nonzero;display:inline;overflow:visible;visibility:visible;opacity:1;isolation:auto;mix-blend-mode:normal;color-interpolation:sRGB;color-interpolation-filters:linearRGB;solid-color:#000000;solid-opacity:1;fill:#000000;fill-opacity:1;fill-rule:nonzero;stroke:#4a90d9;stroke-width:0;stroke-linecap:round;stroke-linejoin:miter;stroke-miterlimit:4;stroke-dasharray:none;stroke-dashoffset:0;stroke-opacity:1;marker:none;color-rendering:auto;image-rendering:auto;shape-rendering:auto;text-rendering:auto;enable-background:accumulate"
           id="rect7467"
           width="7.99999"
           height="43.999989"
           x="-315"
           y="372.00003"
           ry="4.1854858"
           rx="3.999995" />
        <rect
           rx="3.999995"
           ry="4.1854858"
           y="383.00003"
           x="-306"
           height="32.999981"
           width="8"
           id="rect7469"
           style="color:#000000;clip-rule:nonzero;display:inline;overflow:visible;visibility:visible;opacity:1;isolation:auto;mix-blend-mode:normal;color-interpolation:sRGB;color-interpolation-filters:linearRGB;solid-color:#000000;solid-opacity:1;fill:#000000;fill-opacity:1;fill-rule:nonzero;stroke:#4a90d9;stroke-width:0;stroke-linecap:round;stroke-linejoin:miter;stroke-miterlimit:4;stroke-dasharray:none;stroke-dashoffset:0;stroke-opacity:1;marker:none;color-rendering:auto;image-rendering:auto;shape-rendering:auto;text-rendering:auto;enable-background:accumulate" />
        <rect
           style="color:#000000;clip-rule:nonzero;display:inline;overflow:visible;visibility:visible;opacity:1;isolation:auto;mix-blend-mode:normal;color-interpolation:sRGB;color-interpolation-filters:linearRGB;solid-color:#000000;solid-opacity:1;fill:#000000;fill-opacity:1;fill-rule:nonzero;stroke:#4a90d9;stroke-width:0;stroke-linecap:round;stroke-linejoin:miter;stroke-miterlimit:4;stroke-dasharray:none;stroke-dashoffset:0;stroke-opacity:1;marker:none;color-rendering:auto;image-rendering:auto;shape-rendering:auto;text-rendering:auto;enable-background:accumulate"
           id="rect7471"
           width="8"
           height="32.999981"
           x="-297"
           y="383.00003"
           ry="4.1854858"
           rx="3.7530327" />
        <rect
           rx="3.999995"
           ry="4.1854858"
           y="386"
           x="-288"
           height="30.000006"
           width="7.99999"
           id="rect7473"
           style="color:#000000;clip-rule:nonzero;display:inline;overflow:visible;visibility:visible;opacity:1;isolation:auto;mix-blend-mode:normal;color-interpolation:sRGB;color-interpolation-filters:linearRGB;solid-color:#000000;solid-opacity:1;fill:#000000;fill-opacity:1;fill-rule:nonzero;stroke:#4a90d9;stroke-width:0;stroke-linecap:round;stroke-linejoin:miter;stroke-miterlimit:4;stroke-dasharray:none;stroke-dashoffset:0;stroke-opacity:1;marker:none;color-rendering:auto;image-rendering:auto;shape-rendering:auto;text-rendering:auto;enable-background:accumulate" />
        <rect
           style="color:#000000;clip-rule:nonzero;display:inline;overflow:visible;visibility:visible;opacity:1;isolation:auto;mix-blend-mode:normal;color-interpolation:sRGB;color-interpolation-filters:linearRGB;solid-color:#000000;solid-opacity:1;fill:#000000;fill-opacity:1;fill-rule:nonzero;stroke:#4a90d9;stroke-width:0;stroke-linecap:round;stroke-linejoin:miter;stroke-miterlimit:4;stroke-dasharray:none;stroke-dashoffset:0;stroke-opacity:1;marker:none;color-rendering:auto;image-rendering:auto;shape-rendering:auto;text-rendering:auto;enable-background:accumulate"
           id="rect7475"
           width="28.999994"
           height="12.99999"
           x="-324"
           y="403" />
        <rect
           style="color:#000000;clip-rule:nonzero;display:inline;overflow:visible;visibility:visible;opacity:1;isolation:auto;mix-blend-mode:normal;color-interpolation:sRGB;color-interpolation-filters:linearRGB;solid-color:#000000;solid-opacity:1;fill:#000000;fill-opacity:1;fill-rule:nonzero;stroke:#4a90d9;stroke-width:0;stroke-linecap:round;stroke-linejoin:miter;stroke-miterlimit:4;stroke-dasharray:none;stroke-dashoffset:0;stroke-opacity:1;marker:none;color-rendering:auto;image-rendering:auto;shape-rendering:auto;text-rendering:auto;enable-background:accumulate"
           id="rect7477"
           width="34.999985"
           height="21"
           x="-315"
           y="395"
           ry="4.1854858"
           rx="3.999995" />
        <ellipse
           ry="7.5000024"
           rx="7.4999938"
           cy="375.99963"
           cx="-310.96283"
           style="color:#000000;display:inline;overflow:visible;visibility:visible;fill:none;stroke:#000000;stroke-width:3;stroke-linecap:round;stroke-linejoin:miter;stroke-miterlimit:4;stroke-dasharray:none;stroke-dashoffset:0;stroke-opacity:1;marker:none;enable-background:accumulate"
           id="ellipse7479" />
      </g>
    </g>
    <path
       style="color:#000000;display:inline;overflow:visible;visibility:visible;fill:#000000;fill-opacity:1;fill-rule:nonzero;stroke:none;stroke-width:6;marker:none;enable-background:accumulate"
       d="m -235.5,499.29695 -10,-9.5 10,-9.5 z"
       id="path7485"
       inkscape:connector-curvature="0"
       sodipodi:nodetypes="cccc" />
    <rect
       transform="scale(-1)"
       style="color:#000000;clip-rule:nonzero;display:inline;overflow:visible;visibility:visible;opacity:1;isolation:auto;mix-blend-mode:normal;color-interpolation:sRGB;color-interpolation-filters:linearRGB;solid-color:#000000;solid-opacity:1;fill:#000000;fill-opacity:1;fill-rule:nonzero;stroke:#4a90d9;stroke-width:0;stroke-linecap:round;stroke-linejoin:miter;stroke-miterlimit:4;stroke-dasharray:none;stroke-dashoffset:0;stroke-opacity:1;marker:none;color-rendering:auto;image-rendering:auto;shape-rendering:auto;text-rendering:auto;enable-background:accumulate"
       id="rect7487"
       width="13.061281"
       height="4.9999938"
       x="226.12494"
       y="-492.29697" />
  </g>
</svg>
